X: 8
T:Castles in the Air
% Nottingham Music Database
S:Kevin Briggs
M:4/4
L:1/8
R:Hornpipe
K:G
P:A
(3DEF|"G"G2GB "D7"D2(3DEF|"G"GFGA "G7"B4|"C"cBce "G"dBAG|"A7"ABAG "D7"E2(3DEF|
"G"G2GB "D7"D2(3DEF|"G"GFGA "G7"B4|"C"cBce "G"dBGA|"D7"BcBA "G"G2:|
P:B
d2|"C"e2eg "G"d3B|"D7"cBcd "G"B4|"C"cBce "G"dBAG|"A7"ABAG "D7"E2(3DEF|
"G"G2GB "D7"D2(3DEF|"G"GFGA "G7"B4|"C"cBce "G"dBGA|"D7"BcBA "G"G2:|<end>
<start>
